X: 1
T: Lord MacDonald's Reel
C: Sir Alexander, 1st Lord MacDonald
N: 2nd part often played an octave higher.
N: The American tune "Leather Britches" is a variant.
N: BSFC X-3
N: Cole p.22
N: Gow 271
N: H&C p.58
N: Holland p.41 in A
N: Hunter 200
N: Kennedy 2nd tune-book p.13
N: Litten p.16
N: OTDT p.25
N: Skye p.86
Z: John Chambers <jc@trillian.mit.edu>
M: C|
L: 1/8
K: G
|: B \
| "G"~d3e dBgB | dBgB "D7"aAAB | "G"~d3e dBgB | "D7"A/B/c BA "G"BGG :|
[| "G"DGBG AGBG | DGBG AGEG | DGBG AGBG | "D7"DEDC "G"B,G,G,G |
|  "G"DGBG AGBG | DGBG "C"AGEc | "G"BAGF "C"GFED | "D7"EFGA "G"BGG |]
